X:1
T:Title
%%score { ( 1 4 ) | ( 2 3 ) }
L:1/8
Q:1/4=108
M:4/4
K:C
V:1 treble nm="Grand Piano"
V:4 treble 
V:2 bass 
V:3 bass 
V:1
 c2 cc G2 E2 | C2 A2 G4 | G2 GG [Gc]2 [Gd]2 | [Ge]6 z2 | [Ge]2 [Fd][Ec] [EG]3 [EG] | %5
w: Geo.~C.~Hugg * * * *|||||
 [CFB]2 .[D^Fd]2 [DGB]3 [CG] | [CFA]2 [Gc][Ad] [EGc]2 [DFB]2 | [CEc]6 z2 | C2 z2 [Ec]4 | c4 z4 | %10
w: |||||
 G4 [Ec]4 | [Ge]4 [Gd]4 | [Ge]4 [Gc]4 |[M:5/4] c4 z2 z4 |[M:4/4] G2 cc [DFB]2 [B,Fd]2 | [Ec]6 z2 |] %16
w: ||||||
V:2
 C2 CC G,2 E,2 | C,2 A,2 G,4 | [G,B,]2 [G,C][F,D] [E,C]2 [D,B,]2 | [C,C]6 z2 | %4
 [C,C]2 [C,C][C,C] [C,C]3 [C,C] | F,2 z[K:treble] c G,3[K:bass] E, | F,2 E,F, G,2 G,2 | C,6 z2 | %8
 C,2 C,C, [C,G,]2 C,2 | F2- [F,F-][F,F] [F,CF]4 | [E,C]2 E,E, C,2 C,2 | C2 CC [G,B,]4 | %12
 [C,C]2 C,C, [E,G,]2 E,2 |[M:5/4] F2- [F,F-][F,F] [F,CF]6 | %14
[M:4/4] [G,CE]2 [G,CE][G,CE] [G,,G,]2 [G,,G,]2 | [C,C]6 z2 |] %16
V:3
 x8 | x8 | x8 | x8 | x8 | z2 D,2[K:treble] z4[K:bass] | x8 | x8 | x8 | [F,A,]2 z2 z4 | x8 | x8 | %12
 x8 |[M:5/4] [F,A,]2 z2 z2 z4 |[M:4/4] x8 | x8 |] %16
V:4
 x8 | x8 | x8 | x8 | x8 | x8 | z2 C2 z4 | x8 | [EG]2- [CE-G-][CEG] z2 G,2 | z2 A,A, A4 | %10
 z2 CC C2 C2 | x8 | z2 CC z2 _B,2 |[M:5/4] z2 A,A, A6 |[M:4/4] x8 | x8 |] %16

